X:18089
T:Uskudara
O:Turkey
M:4/4
K:Dm
|:D3AA2A2|BABcA2AA|G2GGF2G2|ABAGFEDA,|
D3AA2A2|BABcA2AA|G2GGF2G2|A3AA2A2|
D3EF2G2|ABAGFED2|EFFEED^CD|EFED^CB,A,2|
D3EF2G2|ABAGFED2|EFFEEDD^C|D3DD2D2:|
ABAGFEFG|ABAGFED2|EFFEED^CD|EFED^CB,A,2|
ABAGFEFG|ABAGFED2|EFFEEDD^C|D3DD2D2||
